img/svg/footer-decorate-desktop.svg

<svg width="423" height="360" viewBox="0 0 423 360" fill="none" xmlns="http://www.w3.org/2000/svg">
<mask id="mask0" mask-type="alpha" maskUnits="userSpaceOnUse" x="0" y="0" width="657" height="657">
<rect x="329.995" width="463" height="465" transform="rotate(45.2078 329.995 0)" fill="#F9F7EF"/>
</mask>
<g mask="url(#mask0)">
<g opacity="0.13">
<g clip-path="url(#clip0)">
<path d="M157.67 544.688L156.202 540.502L219.657 519.427L289.287 543.008L359.222 520.068L428.988 543.515L498.788 520.439L562.088 541.975L560.59 546.149L498.636 525.158L428.836 548.234L359.205 524.652L289.405 547.728L219.774 524.147L157.67 544.688Z" fill="#B69D6D"/>
<path d="M124.21 512.337L125.574 508.027L149.951 516.341L219.751 493.266L289.382 516.847L359.317 493.907L429.083 517.354L498.883 494.278L568.514 517.859L592.951 509.722L594.283 514.042L568.497 522.444L498.865 499.133L428.931 522.073L359.3 498.492L289.5 521.567L219.734 498.12L149.935 520.926L124.21 512.337Z" fill="#B69D6D"/>
<path d="M85.112 472.955L86.4762 468.645L150.046 490.182L219.846 467.106L289.477 490.687L359.411 467.747L429.178 491.194L498.978 468.118L568.608 491.7L632.333 470.625L633.666 474.945L568.592 496.285L498.96 472.973L429.026 495.913L359.395 472.332L289.595 495.407L219.829 471.961L150.03 494.766L85.112 472.955Z" fill="#B69D6D"/>
<path d="M64.2916 450.63L62.8234 446.444L80.5103 440.44L150.141 464.021L219.941 440.946L289.572 464.527L359.506 441.587L429.272 465.034L499.073 441.958L568.703 465.54L638.503 442.464L656.146 448.596L654.648 452.771L638.486 447.319L568.687 470.124L499.055 446.813L429.121 469.753L359.49 446.172L289.69 469.247L219.924 445.8L150.124 468.606L80.4927 445.295L64.2916 450.63Z" fill="#B69D6D"/>
<path d="M44.6755 430.871L43.2073 426.685L80.6052 414.28L150.236 437.861L220.036 414.786L289.667 438.367L359.601 415.427L429.367 438.874L499.167 415.798L568.798 439.38L638.598 416.304L675.905 428.98L674.407 433.155L638.581 421.159L568.782 443.964L499.15 420.653L429.215 443.593L359.585 420.012L289.785 443.087L220.018 419.64L150.219 442.446L80.5876 419.135L44.6755 430.871Z" fill="#B69D6D"/>
<path d="M25.1938 411.247L23.7256 407.062L80.7001 388.12L150.331 411.701L220.131 388.626L289.762 412.207L359.696 389.267L429.462 412.714L499.262 389.638L568.893 413.219L638.693 390.144L695.529 409.498L694.03 413.673L638.675 394.998L568.741 417.938L499.245 394.493L429.31 417.433L359.679 393.852L289.879 416.927L220.113 393.48L150.449 416.421L80.6825 392.974L25.1938 411.247Z" fill="#B69D6D"/>
<path d="M-1.81693 385.393L-0.318453 381.219L10.9949 385.035L80.795 361.96L150.426 385.541L220.226 362.466L289.857 386.047L359.791 363.107L429.557 386.554L499.357 363.478L568.988 387.059L638.788 363.984L708.419 387.565L719.76 383.83L721.228 388.016L708.537 392.285L638.77 368.838L568.836 391.778L499.34 368.332L429.405 391.273L359.774 367.691L289.974 390.767L220.208 367.32L150.544 390.261L80.7773 366.814L10.843 389.755L-1.81693 385.393Z" fill="#B69D6D"/>
<path d="M-32.6995 348.872L-31.3353 344.562L11.0898 358.875L80.8899 335.8L150.521 359.381L220.321 336.305L289.951 359.887L359.886 336.946L429.652 360.393L499.452 337.318L569.083 360.899L638.883 337.823L708.514 361.405L751.042 347.4L752.374 351.72L708.631 366.125L638.865 342.678L568.931 365.618L499.434 342.172L429.5 365.112L359.869 341.531L290.069 364.607L220.303 341.16L150.638 364.101L80.8723 340.654L10.9379 363.594L-32.6995 348.872Z" fill="#B69D6D"/>
<path d="M-12.9406 329.256L-11.7118 325.08L11.1847 332.715L80.9847 309.639L150.616 333.221L220.416 310.145L290.046 333.726L359.981 310.786L429.747 334.233L499.547 311.158L569.178 334.739L638.978 311.663L708.609 335.245L731.56 327.776L732.758 331.961L708.726 339.965L638.96 316.518L569.026 339.458L499.529 316.012L429.595 338.952L359.964 315.371L290.164 338.447L220.398 315L150.733 337.941L80.9671 314.494L11.0327 337.434L-12.9406 329.256Z" fill="#B69D6D"/>
<path d="M6.68306 309.774L8.04718 305.464L11.2796 306.555L81.0796 283.479L150.71 307.061L220.51 283.985L290.141 307.566L360.076 284.626L429.842 308.073L499.642 284.997L569.273 308.579L639.073 285.503L708.703 309.084L711.944 308.017L713.277 312.337L708.821 313.805L639.055 290.358L569.121 313.298L499.624 289.852L429.69 312.792L360.059 289.211L290.259 312.286L220.493 288.839L150.828 311.781L81.062 288.334L11.1276 311.274L6.68306 309.774Z" fill="#B69D6D"/>
<path d="M43.6247 274.443L42.1565 270.258L81.1745 257.319L150.805 280.9L220.74 257.96L290.236 281.406L360.171 258.466L429.937 281.913L499.601 258.972L569.368 282.419L639.168 259.343L678.091 272.564L676.592 276.739L639.15 264.197L569.216 287.138L499.719 263.692L429.785 286.632L360.154 263.051L290.354 286.126L220.588 262.679L150.923 285.62L81.1569 262.174L43.6247 274.443Z" fill="#B69D6D"/>
<path d="M81.1174 235.878L82.4815 231.568L150.9 254.74L220.835 231.8L290.331 255.246L360.265 232.306L430.032 255.753L499.696 232.812L569.462 256.258L638.047 233.583L639.38 237.903L569.31 260.978L499.814 237.532L429.88 260.472L360.249 236.891L290.449 259.966L220.683 236.519L151.018 259.46L81.1174 235.878Z" fill="#B69D6D"/>
<path d="M100.741 216.396L102.105 212.086L150.995 228.58L220.929 205.64L290.426 229.086L360.36 206.146L430.126 229.593L499.791 206.651L569.557 230.098L618.566 213.959L619.898 218.279L569.405 234.817L499.909 211.372L429.974 234.312L360.344 210.73L290.544 233.806L220.778 210.359L151.113 233.3L100.741 216.396Z" fill="#B69D6D"/>
<path d="M120.5 196.78L121.864 192.47L151.09 202.42L221.024 179.48L290.521 202.926L360.455 179.986L430.221 203.432L499.886 180.491L569.652 203.938L598.949 194.201L600.282 198.52L569.5 208.657L500.004 185.211L430.069 208.152L360.439 184.57L290.639 207.646L220.872 184.199L151.208 207.14L120.5 196.78Z" fill="#B69D6D"/>
<path d="M140.124 177.299L141.488 172.988L151.185 176.26L221.119 153.32L290.616 176.766L360.55 153.825L430.316 177.272L499.981 154.331L569.747 177.778L579.468 174.577L580.801 178.897L569.595 182.497L500.099 159.051L430.164 181.991L360.533 158.41L290.733 181.486L220.967 158.039L151.303 180.98L140.124 177.299Z" fill="#B69D6D"/>
<path d="M170.434 148.551L169.101 144.231L221.214 127.16L290.711 150.605L360.645 127.665L430.411 151.112L500.076 128.171L552.064 145.62L550.7 149.93L500.194 132.891L430.259 155.831L360.628 132.25L290.828 155.326L221.062 131.879L170.434 148.551Z" fill="#B69D6D"/>
<path d="M209.816 109.453L208.483 105.133L221.309 100.999L290.805 124.445L360.74 101.505L430.506 124.952L500.171 102.011L512.966 106.237L511.602 110.548L500.288 106.731L430.354 129.671L360.723 106.09L290.923 129.165L221.157 105.718L209.816 109.453Z" fill="#B69D6D"/>
<path d="M234.182 83.9204L235.546 79.6102L290.9 98.2852L360.835 75.345L430.601 98.7919L486.09 80.519L487.422 84.8389L430.449 103.511L360.818 79.9298L291.018 103.005L234.182 83.9204Z" fill="#B69D6D"/>
<path d="M253.94 64.3043L255.305 59.9941L290.995 72.125L360.93 49.1849L430.696 72.6318L466.474 60.7601L467.806 65.08L430.544 77.3509L360.913 53.7696L291.113 76.8451L253.94 64.3043Z" fill="#B69D6D"/>
<path d="M273.564 44.8225L274.928 40.5123L291.09 45.9649L361.025 23.0247L430.791 46.4716L446.992 41.1364L448.325 45.4564L430.639 51.1907L361.008 27.6095L291.208 50.685L273.564 44.8225Z" fill="#B69D6D"/>
<path d="M297.378 22.5241L295.91 18.3385L361.119 -3.13547L426.171 18.811L424.673 22.9858L361.103 1.44929L297.378 22.5241Z" fill="#B69D6D"/>
<path d="M336.761 -16.5738L335.293 -20.7594L361.214 -29.2956L387.073 -20.5716L385.575 -16.3967L361.198 -24.7108L336.761 -16.5738Z" fill="#B69D6D"/>
</g>
</g>
</g>
<defs>
<clipPath id="clip0">
<rect x="361.277" y="-46.5559" width="562" height="562" transform="rotate(45.2078 361.277 -46.5559)" fill="white"/>
</clipPath>
</defs>
</svg>

<svg width="423" height="360" viewBox="0 0 423 360" fill="none" xmlns="http://www.w3.org/2000/svg"><mask id="mask0" maskUnits="userSpaceOnUse" x="0" y="0" width="657" height="657"><path transform="rotate(45.208 329.995 0)" fill="#F9F7EF" d="M329.995 0h463v465h-463z"/></mask><g clip-path="url(#clip0)" fill="#B69D6D" opacity=".13" mask="url(#mask0)"><path d="M157.67 544.688l-1.468-4.186 63.455-21.075 69.63 23.581 69.935-22.94 69.766 23.447 69.8-23.076 63.3 21.536-1.498 4.174-61.954-20.991-69.8 23.076-69.631-23.582-69.8 23.076-69.631-23.581-62.104 20.541z"/><path d="M124.21 512.337l1.364-4.31 24.377 8.314 69.8-23.075 69.631 23.581 69.935-22.94 69.766 23.447 69.8-23.076 69.631 23.581 24.437-8.137 1.332 4.32-25.786 8.402-69.632-23.311-69.934 22.94-69.631-23.581-69.8 23.075-69.766-23.447-69.799 22.806-25.725-8.589z"/><path d="M85.112 472.955l1.364-4.31 63.57 21.537 69.8-23.076 69.631 23.581 69.934-22.94 69.767 23.447 69.8-23.076 69.63 23.582 63.725-21.075 1.333 4.32-65.074 21.34-69.632-23.312-69.934 22.94-69.631-23.581-69.8 23.075-69.766-23.446-69.799 22.805-64.918-21.811z"/><path d="M64.292 450.63l-1.469-4.186 17.687-6.004 69.631 23.581 69.8-23.075 69.631 23.581 69.934-22.94 69.766 23.447 69.801-23.076 69.63 23.582 69.8-23.076 17.643 6.132-1.498 4.175-16.162-5.452-69.799 22.805-69.632-23.311-69.934 22.94-69.631-23.581-69.8 23.075-69.766-23.447-69.8 22.806-69.631-23.311-16.201 5.335z"/><path d="M44.675 430.871l-1.468-4.186 37.398-12.405 69.631 23.581 69.8-23.075 69.631 23.581 69.934-22.94 69.766 23.447 69.8-23.076 69.631 23.582 69.8-23.076 37.307 12.676-1.498 4.175-35.826-11.996-69.799 22.805-69.632-23.311-69.935 22.94-69.63-23.581-69.8 23.075-69.767-23.447-69.799 22.806-69.631-23.311-35.912 11.736z"/><path d="M25.194 411.247l-1.468-4.185L80.7 388.12l69.631 23.581 69.8-23.075 69.631 23.581 69.934-22.94 69.766 23.447 69.8-23.076 69.631 23.581 69.8-23.075 56.836 19.354-1.499 4.175-55.355-18.675-69.934 22.94-69.496-23.445-69.935 22.94-69.631-23.581-69.8 23.075-69.766-23.447-69.664 22.941-69.767-23.447-55.488 18.273z"/><path d="M-1.817 385.393l1.499-4.174 11.313 3.816 69.8-23.075 69.631 23.581 69.8-23.075 69.631 23.581 69.934-22.94 69.766 23.447 69.8-23.076 69.631 23.581 69.8-23.075 69.631 23.581 11.341-3.735 1.468 4.186-12.691 4.269-69.767-23.447-69.934 22.94-69.496-23.446-69.935 22.941-69.631-23.582-69.8 23.076-69.766-23.447-69.664 22.941-69.767-23.447-69.934 22.941-12.66-4.362z"/><path d="M-32.7 348.872l1.365-4.31 42.425 14.313 69.8-23.075 69.631 23.581 69.8-23.076 69.63 23.582 69.935-22.941 69.766 23.447 69.8-23.075 69.631 23.581 69.8-23.076 69.631 23.582 42.528-14.005 1.332 4.32-43.743 14.405-69.766-23.447-69.934 22.94-69.497-23.446-69.934 22.94-69.631-23.581-69.8 23.076-69.766-23.447-69.665 22.941-69.766-23.447-69.934 22.94-43.638-14.722z"/><path d="M-12.94 329.256l1.228-4.176 22.897 7.635 69.8-23.076 69.631 23.582 69.8-23.076 69.63 23.581 69.935-22.94 69.766 23.447 69.8-23.075 69.631 23.581 69.8-23.076 69.631 23.582 22.951-7.469 1.198 4.185-24.032 8.004-69.766-23.447-69.934 22.94-69.497-23.446-69.934 22.94-69.631-23.581-69.8 23.076L220.398 315l-69.665 22.941-69.766-23.447-69.934 22.94-23.974-8.178z"/><path d="M6.683 309.774l1.364-4.31 3.233 1.091 69.8-23.076 69.63 23.582 69.8-23.076 69.631 23.581 69.935-22.94 69.766 23.447 69.8-23.076 69.631 23.582 69.8-23.076 69.63 23.581 3.241-1.067 1.333 4.32-4.456 1.468-69.766-23.447-69.934 22.94-69.497-23.446-69.934 22.94-69.631-23.581-69.8 23.075-69.766-23.447-69.665 22.942-69.766-23.447-69.934 22.94-4.445-1.5z"/><path d="M43.625 274.443l-1.468-4.185 39.017-12.939 69.631 23.581 69.935-22.94 69.496 23.446 69.935-22.94 69.766 23.447 69.664-22.941 69.767 23.447 69.8-23.076 38.923 13.221-1.499 4.175-37.442-12.542-69.934 22.941-69.497-23.446-69.934 22.94-69.631-23.581-69.8 23.075-69.766-23.447-69.665 22.941-69.766-23.446-37.532 12.269z"/><path d="M81.117 235.878l1.364-4.31L150.9 254.74l69.935-22.94 69.496 23.446 69.934-22.94 69.767 23.447 69.664-22.941 69.766 23.446 68.585-22.675 1.333 4.32-70.07 23.075-69.496-23.446-69.934 22.94-69.631-23.581-69.8 23.075-69.766-23.447-69.665 22.941-69.9-23.582z"/><path d="M100.741 216.396l1.364-4.31 48.89 16.494 69.934-22.94 69.497 23.446 69.934-22.94 69.766 23.447 69.665-22.942 69.766 23.447 49.009-16.139 1.332 4.32-50.493 16.538-69.496-23.445-69.935 22.94-69.63-23.582-69.8 23.076-69.766-23.447-69.665 22.941-50.372-16.904z"/><path d="M120.5 196.78l1.364-4.31 29.226 9.95 69.934-22.94 69.497 23.446 69.934-22.94 69.766 23.446 69.665-22.941 69.766 23.447 29.297-9.737 1.333 4.319-30.782 10.137-69.496-23.446-69.935 22.941-69.63-23.582-69.8 23.076-69.767-23.447-69.664 22.941-30.708-10.36z"/><path d="M140.124 177.299l1.364-4.311 9.697 3.272 69.934-22.94 69.497 23.446 69.934-22.941 69.766 23.447 69.665-22.941 69.766 23.447 9.721-3.201 1.333 4.32-11.206 3.6-69.496-23.446-69.935 22.94-69.631-23.581-69.8 23.076-69.766-23.447-69.664 22.941-11.179-3.681z"/><path d="M170.434 148.551l-1.333-4.32 52.113-17.071 69.497 23.445 69.934-22.94 69.766 23.447 69.665-22.941 51.988 17.449-1.364 4.31-50.506-17.039-69.935 22.94-69.631-23.581-69.8 23.076-69.766-23.447-50.628 16.672z"/><path d="M209.816 109.453l-1.333-4.32 12.826-4.134 69.496 23.446 69.935-22.94 69.766 23.447 69.665-22.941 12.795 4.226-1.364 4.311-11.314-3.817-69.934 22.94-69.631-23.581-69.8 23.075-69.766-23.447-11.341 3.735z"/><path d="M234.182 83.92l1.364-4.31L290.9 98.285l69.935-22.94 69.766 23.447 55.489-18.273 1.332 4.32-56.973 18.672-69.631-23.581-69.8 23.075-56.836-19.085z"/><path d="M253.94 64.304l1.365-4.31 35.69 12.131 69.935-22.94 69.766 23.447 35.778-11.872 1.332 4.32-37.262 12.27-69.631-23.58-69.8 23.075-37.173-12.54z"/><path d="M273.564 44.822l1.364-4.31 16.162 5.453 69.935-22.94 69.766 23.447 16.201-5.336 1.333 4.32-17.686 5.735-69.631-23.582-69.8 23.076-17.644-5.863zm23.814-22.298l-1.468-4.186 65.209-21.473 65.052 21.946-1.498 4.175-63.57-21.537-63.725 21.075zm39.383-39.098l-1.468-4.185 25.921-8.537 25.859 8.724-1.498 4.175-24.377-8.314-24.437 8.137z"/></g><defs><clipPath id="clip0"><path transform="rotate(45.208 361.277 -46.556)" fill="#fff" d="M361.277-46.556h562v562h-562z"/></clipPath></defs></svg>
